X: 111
T:Never Was Piping So Gay
M:2/2
L:1/8
C:Ed Reavy
S:The Collected Compositions of Ed Reavy
R:reel
N:The concluding line of O'Driscoll's refrain in Yeats' poem, "The Host
N:of
N:he air".
N:O'Driscoll dreamed that his wife Bridget was taken by the Host as he
N:was
N:laying harmlessly at
N:cards with "the merry old men." When O'Driscoll awoke from his dream,
N:all that remained of the dream was the strange unearthly sound of a
N:pipe
N:piping away in the distant air- "And never was piping so sad, And
N:never was piping so gay."
Z:Joseph Reavy
K:G
DB,||:G, B,D GBdB|cafd cAFA|G2 BG DGBG|AF (3FFF dFcF|G2 BG
DGB,D|Aafd ^cdef|gfgd cBcA
|1FGAc BGDB,:|2FGAc BG G2||gfgd  ^cdBG|FGBd cAFA|GB (3cBA BcdB|cafd ^cde
f|gfgd ^cdBG|FGBd
cAFA|BG (3GGG AF (3FFF|BdcA G4||gfgd ^cdBG|FGBd cAFA|
GB (3cBA BcdB|cafd ^cdef|gbaf gd^cd|BGFG cAFA|BG (3FFF AF (3FFF|BdcA G2|
|

